X:1
T:Duchess of Richmond's [2], The
T:Duchess of Richmond's [2], The
T:Alexander Walker
C:Alexander Walker
L:1/8
M:2/2
K:E
V:1 treble 
V:1
 f | e2 eB GEEG | Ac GB cFFd | e2 eB GEEG | CFDB, E2 E :| g | bgeB cffg | egdf eBGE | AcGB cFFA | %9
 GEDF (E2 E)B | e2 eB cffg | egdf eBGE | AcGB cffa | gedf e2 e || %14

